; G-Code generated by Simplify3D(R) Version 4.1.1
; Jan 21, 2019 at 11:43:05 AM
; Settings Summary
;   processName,Process1
;   applyToModels,FilamentClipC_175,FilamentClipC_175(2),FilamentClipC_175(2)(2),FilamentClipC_175(2)(3)
;   profileName,BLV PLA CR-10 BLV CUBE Test (modified)
;   profileVersion,2019-01-20 11:02:31
;   baseProfile,Anet A8
;   printMaterial,PLA
;   printQuality,Medium
;   printExtruders,
;   extruderName,Primary Extruder
;   extruderToolheadNumber,0
;   extruderDiameter,0.4
;   extruderAutoWidth,0
;   extruderWidth,0.4
;   extrusionMultiplier,1
;   extruderUseRetract,1
;   extruderRetractionDistance,5.5
;   extruderExtraRestartDistance,-0.1
;   extruderRetractionZLift,0
;   extruderRetractionSpeed,5100
;   extruderUseCoasting,1
;   extruderCoastingDistance,0.2
;   extruderUseWipe,1
;   extruderWipeDistance,4
;   primaryExtruder,0
;   layerHeight,0.2
;   topSolidLayers,3
;   bottomSolidLayers,3
;   perimeterOutlines,3
;   printPerimetersInsideOut,1
;   startPointOption,3
;   startPointOriginX,0
;   startPointOriginY,500
;   sequentialIslands,0
;   spiralVaseMode,0
;   firstLayerHeightPercentage,120
;   firstLayerWidthPercentage,120
;   firstLayerUnderspeed,0.5
;   useRaft,0
;   raftExtruder,0
;   raftTopLayers,3
;   raftBaseLayers,2
;   raftOffset,3
;   raftSeparationDistance,0.14
;   raftTopInfill,100
;   aboveRaftSpeedMultiplier,0.3
;   useSkirt,1
;   skirtExtruder,0
;   skirtLayers,1
;   skirtOutlines,2
;   skirtOffset,6
;   usePrimePillar,0
;   primePillarExtruder,999
;   primePillarWidth,12
;   primePillarLocation,7
;   primePillarSpeedMultiplier,1
;   useOozeShield,0
;   oozeShieldExtruder,999
;   oozeShieldOffset,2
;   oozeShieldOutlines,1
;   oozeShieldSidewallShape,1
;   oozeShieldSidewallAngle,30
;   oozeShieldSpeedMultiplier,1
;   infillExtruder,0
;   internalInfillPattern,Rectilinear
;   externalInfillPattern,Rectilinear
;   infillPercentage,25
;   outlineOverlapPercentage,15
;   infillExtrusionWidthPercentage,100
;   minInfillLength,5
;   infillLayerInterval,1
;   internalInfillAngles,45,-45
;   overlapInternalInfillAngles,0
;   externalInfillAngles,45,-45
;   generateSupport,0
;   supportExtruder,0
;   supportInfillPercentage,30
;   supportExtraInflation,0
;   supportBaseLayers,0
;   denseSupportExtruder,0
;   denseSupportLayers,0
;   denseSupportInfillPercentage,70
;   supportLayerInterval,1
;   supportHorizontalPartOffset,0.4
;   supportUpperSeparationLayers,1
;   supportLowerSeparationLayers,1
;   supportType,0
;   supportGridSpacing,4.5
;   maxOverhangAngle,45
;   supportAngles,0
;   temperatureName,Primary Extruder,Heated Bed
;   temperatureNumber,0,0
;   temperatureSetpointCount,1,1
;   temperatureSetpointLayers,1,1
;   temperatureSetpointTemperatures,190,60
;   temperatureStabilizeAtStartup,1,1
;   temperatureHeatedBed,0,1
;   fanLayers,1,2,4
;   fanSpeeds,0,75,100
;   blipFanToFullPower,1
;   adjustSpeedForCooling,1
;   minSpeedLayerTime,15
;   minCoolingSpeedSlowdown,20
;   increaseFanForCooling,0
;   minFanLayerTime,45
;   maxCoolingFanSpeed,100
;   increaseFanForBridging,1
;   bridgingFanSpeed,100
;   use5D,1
;   relativeEdistances,0
;   allowEaxisZeroing,1
;   independentExtruderAxes,0
;   includeM10123,0
;   stickySupport,1
;   applyToolheadOffsets,0
;   gcodeXoffset,0
;   gcodeYoffset,0
;   gcodeZoffset,0
;   overrideMachineDefinition,1
;   machineTypeOverride,0
;   strokeXoverride,300
;   strokeYoverride,300
;   strokeZoverride,350
;   originOffsetXoverride,0
;   originOffsetYoverride,0
;   originOffsetZoverride,0
;   homeXdirOverride,-1
;   homeYdirOverride,-1
;   homeZdirOverride,-1
;   flipXoverride,1
;   flipYoverride,-1
;   flipZoverride,1
;   toolheadOffsets,0,0|0,0|0,0|0,0|0,0|0,0
;   overrideFirmwareConfiguration,1
;   firmwareTypeOverride,RepRap (Marlin/Repetier/Sprinter)
;   GPXconfigOverride,r2
;   baudRateOverride,115200
;   overridePrinterModels,1
;   printerModelsOverride,Blvfull.stl
;   startingGcode,M291 P"Homing all axis" R"Printing.." S1 T2,G21		; metric values,G28		; home all,;G29 S2		; mark if you want to disable mesh grid,G32		; Run mesh grid compenstion,		; Purge extruder,G92 E0 F100		; reset extruder,G1 Z10 F3000 		; move z up little to prevent scratching of surface,M98 P/macros/Filament/Purge	; Run nozzle purge macro,;G1 E-1 F2000		; Retract 1mm filament,G92 E0 		; reset extruder,M291 P"Printing started !" R"Printing.." S1 T3
;   layerChangeGcode,
;   retractionGcode,
;   toolChangeGcode,
;   endingGcode,M104 S0 ; turn off extruder,M140 S0 ; turn off bed,G1 X0 Y300 F1000 ; prepare for part removal,M84 ; disable motors,M107 :turn off part cooling fan,M81 ; shutdown,; play song,M300 S294 P200 ;D4: 294,M300 S588 P200 ;D5: 588,M300 S440 P200 ;A4: 440,M300 S392 P200 ;G4: 392,M300 S784 P200 ;G5: 784,M300 S440 P200 ;A4: 440,M300 S740 P200 ;F#5: 740,M300 S440 P200 ;A4: 440,M291 P"Printing finished !" R"Printing.." S1 T0,
;   exportFileFormat,gcode
;   celebration,0
;   celebrationSong,Star Wars
;   postProcessing,
;   defaultSpeed,3600
;   outlineUnderspeed,0.5
;   solidInfillUnderspeed,0.8
;   supportUnderspeed,0.8
;   rapidXYspeed,7200
;   rapidZspeed,1002
;   minBridgingArea,50
;   bridgingExtraInflation,0
;   bridgingExtrusionMultiplier,1
;   bridgingSpeedMultiplier,1
;   useFixedBridgingAngle,0
;   fixedBridgingAngle,0
;   applyBridgingToPerimeters,1
;   filamentDiameters,1.75|1.75|1.75|1.75|1.75|1.75
;   filamentPricesPerKg,110|110|110|110|110|110
;   filamentDensities,1.25|1.25|1.25|1.25|1.25|1.25
;   useMinPrintHeight,0
;   minPrintHeight,0
;   useMaxPrintHeight,0
;   maxPrintHeight,0
;   useDiaphragm,0
;   diaphragmLayerInterval,20
;   robustSlicing,1
;   mergeAllIntoSolid,0
;   onlyRetractWhenCrossingOutline,0
;   retractBetweenLayers,1
;   useRetractionMinTravel,1
;   retractionMinTravel,3
;   retractWhileWiping,1
;   onlyWipeOutlines,1
;   avoidCrossingOutline,1
;   maxMovementDetourFactor,3
;   toolChangeRetractionDistance,12
;   toolChangeExtraRestartDistance,-0.5
;   toolChangeRetractionSpeed,600
;   externalThinWallType,0
;   internalThinWallType,2
;   thinWallAllowedOverlapPercentage,15
;   singleExtrusionMinLength,1
;   singleExtrusionMinPrintingWidthPercentage,50
;   singleExtrusionMaxPrintingWidthPercentage,200
;   singleExtrusionEndpointExtension,0.2
;   horizontalSizeCompensation,0
G90
M82
M106 S0
M140 S60
M190 S60
M104 S190 T0
M109 S190 T0
M291 P"Homing all axis" R"Printing.." S1 T2
G21		; metric values
G28		; home all
;G29 S2		; mark if you want to disable mesh grid
G32		; Run mesh grid compenstion
		; Purge extruder
G92 E0 F100		; reset extruder
G1 Z10 F3000 		; move z up little to prevent scratching of surface
M98 P/macros/Filament/Purge	; Run nozzle purge macro
;G1 E-1 F2000		; Retract 1mm filament
G92 E0 		; reset extruder
M291 P"Printing started !" R"Printing.." S1 T3
; process Process1
; layer 1, Z = 0.240
T0
G92 E0.0000
G1 E-5.5000 F5100
; feature skirt
; tool H0.240 W0.480
G1 Z0.240 F1002
G1 X125.363 Y171.996 F7200
G1 E-0.1000 F5100
G92 E0.0000
G1 X124.211 Y171.633 E0.0578 F1800
G1 X123.289 Y171.178 E0.1071
G1 X122.151 Y170.382 E0.1736
G1 X121.502 Y169.787 E0.2158
G1 X120.796 Y168.945 E0.2684
G1 X120.322 Y168.202 E0.3106
G1 X119.767 Y167.010 E0.3736
G1 X119.502 Y166.170 E0.4158
G1 X119.311 Y165.088 E0.4684
G1 X119.272 Y164.208 E0.5106
G1 X119.393 Y162.825 E0.5771
G1 X119.638 Y161.826 E0.6263
G1 X120.156 Y160.574 E0.6912
G1 X120.304 Y160.331 E0.7049
G1 X120.051 Y159.720 E0.7365
G1 X119.767 Y158.658 E0.7892
G1 X119.652 Y157.785 E0.8314
G1 X119.652 Y156.470 E0.8943
G1 X119.767 Y155.597 E0.9365
G1 X120.051 Y154.535 E0.9892
G1 X120.388 Y153.721 E1.0314
G1 X121.120 Y152.455 E1.1014
G1 X121.875 Y151.554 E1.1577
G1 X122.759 Y150.812 E1.2130
G1 X122.031 Y150.302 E1.2556
G1 X121.199 Y149.470 E1.3119
G1 X120.360 Y148.272 E1.3820
G1 X119.954 Y147.491 E1.4241
G1 X119.628 Y146.597 E1.4697
G1 X119.476 Y146.030 E1.4978
G1 X119.311 Y145.093 E1.5434
G1 X119.272 Y144.213 E1.5856
G1 X119.393 Y142.829 E1.6521
G1 X119.638 Y141.830 E1.7014
G1 X120.156 Y140.579 E1.7662
G1 X120.304 Y140.335 E1.7799
G1 X120.051 Y139.724 E1.8116
G1 X119.767 Y138.663 E1.8642
G1 X119.652 Y137.789 E1.9064
G1 X119.652 Y136.475 E1.9694
G1 X119.767 Y135.601 E2.0115
G1 X120.051 Y134.540 E2.0642
G1 X120.388 Y133.726 E2.1064
G1 X121.120 Y132.459 E2.1764
G1 X121.875 Y131.559 E2.2327
G1 X123.109 Y130.524 E2.3098
G1 X124.127 Y129.936 E2.3662
G1 X125.501 Y129.436 E2.4362
G1 X126.361 Y129.245 E2.4784
G1 X127.456 Y129.149 E2.5310
G1 X128.336 Y129.188 E2.5732
G1 X129.483 Y129.390 E2.6290
G1 X130.043 Y129.539 E2.6568
G1 X131.316 Y130.000 E2.7216
G1 X131.359 Y129.952 E2.7247
G1 X131.998 Y129.318 E2.7678
G1 X132.212 Y129.124 E2.7816
G1 X132.863 Y128.581 E2.8222
G1 X133.093 Y128.405 E2.8361
G1 X133.788 Y127.921 E2.8767
G1 X134.032 Y127.766 E2.8905
G1 X134.766 Y127.342 E2.9311
G1 X135.022 Y127.209 E2.9449
G1 X135.790 Y126.850 E2.9855
G1 X136.057 Y126.739 E2.9994
G1 X136.853 Y126.447 E3.0400
G1 X137.128 Y126.359 E3.0538
G1 X137.946 Y126.137 E3.0944
G1 X138.228 Y126.074 E3.1083
G1 X139.062 Y125.923 E3.1489
G1 X139.349 Y125.883 E3.1627
G1 X140.193 Y125.804 E3.2033
G1 X140.481 Y125.790 E3.2171
G1 X141.329 Y125.784 E3.2577
G1 X141.618 Y125.794 E3.2716
G1 X142.463 Y125.861 E3.3122
G1 X142.749 Y125.896 E3.3260
G1 X143.586 Y126.035 E3.3666
G1 X143.868 Y126.095 E3.3805
G1 X144.689 Y126.305 E3.4210
G1 X144.966 Y126.388 E3.4349
G1 X145.766 Y126.668 E3.4755
G1 X146.035 Y126.776 E3.4893
G1 X146.808 Y127.123 E3.5299
G1 X147.066 Y127.253 E3.5438
G1 X147.806 Y127.666 E3.5844
G1 X148.052 Y127.817 E3.5982
G1 X148.754 Y128.292 E3.6388
G1 X148.986 Y128.464 E3.6526
G1 X149.645 Y128.998 E3.6932
G1 X149.862 Y129.189 E3.7071
G1 X150.472 Y129.777 E3.7477
G1 X150.626 Y129.936 E3.7583
G1 X152.000 Y129.436 E3.8284
G1 X152.860 Y129.245 E3.8706
G1 X153.955 Y129.149 E3.9232
G1 X154.835 Y129.188 E3.9654
G1 X155.982 Y129.390 E4.0212
G1 X156.542 Y129.539 E4.0489
G1 X157.816 Y130.000 E4.1138
G1 X157.859 Y129.952 E4.1169
G1 X158.498 Y129.318 E4.1600
G1 X158.711 Y129.124 E4.1738
G1 X159.363 Y128.581 E4.2144
G1 X159.592 Y128.406 E4.2282
G1 X160.287 Y127.921 E4.2688
G1 X160.531 Y127.766 E4.2827
G1 X161.265 Y127.342 E4.3233
G1 X161.522 Y127.209 E4.3371
G1 X162.290 Y126.850 E4.3777
G1 X162.556 Y126.739 E4.3916
G1 X163.352 Y126.447 E4.4322
G1 X163.628 Y126.359 E4.4460
G1 X164.446 Y126.137 E4.4866
G1 X164.728 Y126.074 E4.5004
G1 X165.562 Y125.923 E4.5410
G1 X165.848 Y125.883 E4.5549
G1 X166.692 Y125.804 E4.5955
G1 X166.981 Y125.790 E4.6093
G1 X167.828 Y125.784 E4.6499
G1 X168.117 Y125.794 E4.6638
G1 X168.962 Y125.861 E4.7043
G1 X169.249 Y125.896 E4.7182
G1 X170.085 Y126.035 E4.7588
G1 X170.368 Y126.095 E4.7726
G1 X171.189 Y126.305 E4.8132
G1 X171.465 Y126.388 E4.8271
G1 X172.265 Y126.668 E4.8677
G1 X172.534 Y126.776 E4.8815
G1 X173.307 Y127.123 E4.9221
G1 X173.565 Y127.253 E4.9359
G1 X174.306 Y127.666 E4.9765
G1 X174.552 Y127.817 E4.9904
G1 X175.254 Y128.292 E5.0310
G1 X175.486 Y128.464 E5.0448
G1 X176.145 Y128.998 E5.0854
G1 X176.361 Y129.189 E5.0992
G1 X176.972 Y129.777 E5.1399
G1 X177.171 Y129.986 E5.1537
G1 X177.729 Y130.625 E5.1943
G1 X177.910 Y130.850 E5.2081
G1 X178.410 Y131.534 E5.2487
G1 X178.571 Y131.774 E5.2626
G1 X179.011 Y132.498 E5.3032
G1 X179.151 Y132.752 E5.3170
G1 X179.527 Y133.511 E5.3576
G1 X179.644 Y133.775 E5.3714
G1 X179.954 Y134.564 E5.4120
G1 X180.048 Y134.837 E5.4259
G1 X180.289 Y135.650 E5.4665
G1 X180.359 Y135.931 E5.4803
G1 X180.530 Y136.761 E5.5209
G1 X180.576 Y137.046 E5.5348
G1 X180.674 Y137.888 E5.5753
G1 X180.695 Y138.176 E5.5892
G1 X180.721 Y139.024 E5.6298
G1 X180.717 Y139.312 E5.6436
G1 X180.670 Y140.159 E5.6842
G1 X180.641 Y140.446 E5.6981
G1 X180.522 Y141.285 E5.7387
G1 X180.469 Y141.569 E5.7525
G1 X180.278 Y142.395 E5.7931
G1 X180.200 Y142.674 E5.8069
G1 X179.939 Y143.480 E5.8475
G1 X179.838 Y143.751 E5.8614
G1 X179.508 Y144.532 E5.9020
G1 X179.384 Y144.793 E5.9158
G1 X178.989 Y145.543 E5.9564
G1 X178.843 Y145.792 E5.9703
G1 X178.385 Y146.505 E6.0109
G1 X178.218 Y146.741 E6.0247
G1 X177.700 Y147.412 E6.0653
G1 X177.513 Y147.633 E6.0791
G1 X176.940 Y148.257 E6.1197
G1 X176.735 Y148.461 E6.1336
G1 X176.149 Y148.997 E6.1716
G1 X176.361 Y149.184 E6.1851
G1 X176.972 Y149.772 E6.2257
G1 X177.171 Y149.982 E6.2396
G1 X177.729 Y150.620 E6.2802
G1 X177.910 Y150.845 E6.2940
G1 X178.410 Y151.529 E6.3346
G1 X178.571 Y151.769 E6.3485
G1 X179.011 Y152.494 E6.3891
G1 X179.151 Y152.747 E6.4029
G1 X179.527 Y153.506 E6.4435
G1 X179.644 Y153.770 E6.4573
G1 X179.954 Y154.559 E6.4979
G1 X180.048 Y154.833 E6.5118
G1 X180.289 Y155.645 E6.5524
G1 X180.359 Y155.926 E6.5662
G1 X180.530 Y156.756 E6.6068
G1 X180.576 Y157.041 E6.6206
G1 X180.674 Y157.883 E6.6612
G1 X180.695 Y158.172 E6.6751
G1 X180.721 Y159.019 E6.7157
G1 X180.717 Y159.308 E6.7295
G1 X180.670 Y160.154 E6.7701
G1 X180.641 Y160.442 E6.7840
G1 X180.522 Y161.281 E6.8246
G1 X180.469 Y161.565 E6.8384
G1 X180.277 Y162.391 E6.8790
G1 X180.200 Y162.669 E6.8928
G1 X179.939 Y163.475 E6.9334
G1 X179.838 Y163.746 E6.9473
G1 X179.508 Y164.527 E6.9879
G1 X179.384 Y164.788 E7.0017
G1 X178.989 Y165.538 E7.0423
G1 X178.843 Y165.787 E7.0561
G1 X178.384 Y166.500 E7.0967
G1 X178.218 Y166.736 E7.1106
G1 X177.700 Y167.407 E7.1512
G1 X177.513 Y167.628 E7.1650
G1 X176.940 Y168.252 E7.2056
G1 X176.735 Y168.456 E7.2195
G1 X176.110 Y169.029 E7.2601
G1 X175.889 Y169.214 E7.2739
G1 X175.217 Y169.731 E7.3145
G1 X174.980 Y169.897 E7.3283
G1 X174.266 Y170.354 E7.3689
G1 X174.016 Y170.499 E7.3828
G1 X173.266 Y170.893 E7.4234
G1 X173.004 Y171.016 E7.4372
G1 X172.223 Y171.344 E7.4778
G1 X171.952 Y171.445 E7.4916
G1 X171.831 Y171.483 E7.4977
G1 X171.628 Y171.706 E7.5121
G1 X171.207 Y172.095 E7.5396
G1 X170.484 Y172.657 E7.5834
G1 X170.002 Y172.969 E7.6110
G1 X169.195 Y173.400 E7.6548
G1 X168.667 Y173.626 E7.6823
G1 X167.798 Y173.913 E7.7261
G1 X167.239 Y174.045 E7.7536
G1 X166.334 Y174.181 E7.7975
G1 X165.761 Y174.217 E7.8250
G1 X164.846 Y174.196 E7.8688
G1 X164.275 Y174.134 E7.8963
G1 X163.377 Y173.958 E7.9401
G1 X162.825 Y173.800 E7.9676
G1 X161.970 Y173.474 E8.0115
G1 X161.452 Y173.225 E8.0390
G1 X160.665 Y172.758 E8.0828
G1 X160.198 Y172.425 E8.1103
G1 X159.953 Y172.216 E8.1257
G1 X153.603 Y172.216 E8.4298
G1 X153.310 Y172.203 E8.4439
G1 X152.582 Y172.139 E8.4789
G1 X151.862 Y171.996 E8.5140
G1 X150.711 Y171.633 E8.5719
G1 X149.788 Y171.178 E8.6211
G1 X148.651 Y170.382 E8.6876
G1 X148.269 Y170.032 E8.7124
G1 X147.767 Y170.354 E8.7410
G1 X147.517 Y170.499 E8.7548
G1 X146.766 Y170.893 E8.7954
G1 X146.505 Y171.016 E8.8093
G1 X145.723 Y171.344 E8.8499
G1 X145.452 Y171.445 E8.8637
G1 X145.332 Y171.483 E8.8698
G1 X145.129 Y171.706 E8.8842
G1 X144.707 Y172.095 E8.9117
G1 X143.985 Y172.657 E8.9555
G1 X143.503 Y172.969 E8.9830
G1 X142.695 Y173.400 E9.0268
G1 X142.167 Y173.626 E9.0543
G1 X141.298 Y173.913 E9.0982
G1 X140.740 Y174.045 E9.1257
G1 X139.835 Y174.181 E9.1695
G1 X139.261 Y174.217 E9.1970
G1 X138.346 Y174.196 E9.2409
G1 X137.775 Y174.134 E9.2684
G1 X136.877 Y173.958 E9.3122
G1 X136.325 Y173.800 E9.3397
G1 X135.470 Y173.474 E9.3835
G1 X134.953 Y173.225 E9.4110
G1 X134.165 Y172.758 E9.4549
G1 X133.698 Y172.425 E9.4824
G1 X133.453 Y172.216 E9.4978
G1 X127.104 Y172.216 E9.8019
G1 X126.811 Y172.203 E9.8159
G1 X126.082 Y172.139 E9.8510
G1 X125.363 Y171.996 E9.8861
G1 X124.391 Y171.186 F7200
G92 E0.0000
G1 X123.534 Y170.764 E0.0457 F1800
G1 X122.452 Y170.007 E0.1090
G1 X121.849 Y169.454 E0.1482
G1 X121.184 Y168.661 E0.1978
G1 X120.744 Y167.971 E0.2369
G1 X120.215 Y166.836 E0.2969
G1 X119.969 Y166.056 E0.3361
G1 X119.789 Y165.036 E0.3857
